src/assets/outline/ReceiptSquare.svg

<svg width="24" height="24" viewBox="0 0 24 24"  xmlns="http://www.w3.org/2000/svg">
<path d="M15 22.75H9C3.57 22.75 1.25 20.43 1.25 15V9C1.25 3.57 3.57 1.25 9 1.25H15C20.43 1.25 22.75 3.57 22.75 9V15C22.75 20.43 20.43 22.75 15 22.75ZM9 2.75C4.39 2.75 2.75 4.39 2.75 9V15C2.75 19.61 4.39 21.25 9 21.25H15C19.61 21.25 21.25 19.61 21.25 15V9C21.25 4.39 19.61 2.75 15 2.75H9Z" />
<path d="M12 18.6304C11.44 18.6304 10.91 18.3504 10.54 17.8604L9.94 17.0603C9.87 16.9703 9.79001 16.9204 9.70001 16.9104C9.61001 16.9104 9.53001 16.9503 9.45001 17.0303L8.89999 16.5204L9.45001 17.0303C8.48001 18.0703 7.68999 17.9704 7.29999 17.8204C6.90999 17.6604 6.25 17.1803 6.25 15.7003V9.07036C6.25 6.29036 7.14 5.36035 9.78 5.36035H14.23C16.87 5.36035 17.76 6.30036 17.76 9.07036V15.7003C17.76 17.1803 17.1 17.6704 16.71 17.8204C16.33 17.9704 15.54 18.0703 14.56 17.0303C14.48 16.9503 14.39 16.9104 14.3 16.9104C14.21 16.9104 14.13 16.9703 14.06 17.0603L13.47 17.8504C13.09 18.3504 12.56 18.6304 12 18.6304ZM9.69 15.4104C9.72 15.4104 9.75 15.4104 9.78 15.4104C10.31 15.4404 10.8 15.7104 11.13 16.1604L11.73 16.9604C11.9 17.1804 12.09 17.1804 12.25 16.9604L12.84 16.1703C13.17 15.7203 13.67 15.4503 14.2 15.4203C14.72 15.3803 15.25 15.6104 15.63 16.0204C15.91 16.3204 16.09 16.4003 16.16 16.4203C16.15 16.3703 16.24 16.1704 16.24 15.7104V9.08035C16.24 7.03035 15.93 6.87035 14.21 6.87035H9.76001C8.04001 6.87035 7.73001 7.03035 7.73001 9.08035V15.7104C7.73001 16.1704 7.82001 16.3703 7.85001 16.4303C7.88001 16.3903 8.05999 16.3103 8.32999 16.0103C8.32999 16.0003 8.34001 16.0004 8.35001 15.9904C8.72001 15.6304 9.2 15.4104 9.69 15.4104Z" />
</svg>

<?xml version="1.0" encoding="UTF-8"?>
<svg width="24" height="24" viewBox="0 0 24 24" xmlns="http://www.w3.org/2000/svg">
 <path d="m15 22.75h-6c-5.43 0-7.75-2.32-7.75-7.75v-6c0-5.43 2.32-7.75 7.75-7.75h6c5.43 0 7.75 2.32 7.75 7.75v6c0 5.43-2.32 7.75-7.75 7.75zm-6-20c-4.61 0-6.25 1.64-6.25 6.25v6c0 4.61 1.64 6.25 6.25 6.25h6c4.61 0 6.25-1.64 6.25-6.25v-6c0-4.61-1.64-6.25-6.25-6.25h-6z"/>
 <path d="m12 18.63c-0.56 0-1.09-0.28-1.46-0.77l-0.6-0.8001c-0.07-0.09-0.14999-0.1399-0.23999-0.1499-0.09 0-0.17 0.0399-0.25 0.1199l-0.55002-0.5099 0.55002 0.5099c-0.97 1.04-1.76 0.9401-2.15 0.7901-0.39-0.16-1.05-0.6401-1.05-2.1201v-6.6299c0-2.78 0.89-3.71 3.53-3.71h4.45c2.64 0 3.53 0.94001 3.53 3.71v6.6299c0 1.48-0.66 1.9701-1.05 2.1201-0.38 0.15-1.17 0.2499-2.15-0.7901-0.08-0.08-0.17-0.1199-0.26-0.1199s-0.17 0.0599-0.24 0.1499l-0.59 0.7901c-0.38 0.5-0.91 0.78-1.47 0.78zm-2.31-3.22h0.09c0.53 0.03 1.02 0.3 1.35 0.75l0.6 0.8c0.17 0.22 0.36 0.22 0.52 0l0.59-0.7901c0.33-0.45 0.83-0.72 1.36-0.75 0.52-0.04 1.05 0.1901 1.43 0.6001 0.28 0.3 0.46 0.3799 0.53 0.3999-0.01-0.05 0.08-0.2499 0.08-0.7099v-6.63c0-2.05-0.31-2.21-2.03-2.21h-4.45c-1.72 0-2.03 0.16-2.03 2.21v6.63c0 0.46 0.09 0.6599 0.12 0.7199 0.03-0.04 0.20998-0.12 0.47998-0.42 0-0.01 0.01002-0.0099 0.02002-0.0199 0.37-0.36 0.84999-0.58 1.34-0.58z"/>
</svg>
